X:8435
T:Katy is Waiting Jig
M:6/8
L:1/8
K:Em
d/c/|BEE BEE|BAF BAF|D3/2D/D FED|AdB AGF|!
B3/2E/E B3/2E/E|BEE BAF|ABc dAF|GEE E2:|!
|:d|e3 efg|fed ecA|Add dcd|ABc dAF|!
D2e efg|fed ecA|dcd AGF|G3/2E/E E2:|!
